X:1
T:This day Christ was born - Byrd
T:James Gibb editions
T:#
%%score { 1 | 2 } { 3 | 4 } 5 6
L:1/8
Q:1/4=72
M:4/4
K:Bb
V:1 treble nm="Soprano I" snm="S"
V:2 treble 
V:3 treble nm="Alto I" snm="A"
V:4 treble 
V:5 treble-8 nm="Tenor" snm="T"
V:6 bass nm="Bass" snm="B"
V:1
"^This day Christ was born""^William Byrd\n(1543-1623)"{[Cg]} G2 A2 c3 (B/{[Cg]}A/) | %1
w: This day Christ was *|
 G2 z d2 (c/B/) A2 | B2 F2 F4 |[M:4/4] z2 F2 c2 z f- | f (e/d/) c2 z2 e2 | d2 z B e>e d2 | %6
w: born, Christ was * born,|Christ was born,|this day Christ|* was * born. This|day our Sa- vi- our|
 c3 c c4 | z2 c2 AG A>B | cA G2 z4 | c2 F2 z F c>(d | =e)f3/2 (_e/d/c/ d4) | c4 z4 | z8 | %13
w: did ap- pear.|This day the an- gels|sing in earth.|this day the an- gels|* sing in * * *|earth.||
 c>d =ed/e/ (f/e/d/e/ f2) | (de) d2 z2 c>B | AF/G/ AG C z c>B | AFc f2 F c2 || %17
w: The arch- an- gels are glad, * * * *|are * glad, the arch-|an- gels are glad, are glad, the arch-|an- gels are glad, are glad.|
[M:3/4][Q:1/4=108] d4 c2 | d2 e2 c2 | d4 F2 | (Bcde f2) | z6 | %22
w: This day|the just re-|joice, re-|joice, * * * *||
[M:3/4][Q:1/4=108][Q:1/4=108][Q:1/4=108][Q:1/4=108] z6 | B4 A2 | B2 G2 A2 | (Bcde f2) | (FGAF) B2 | %27
w: |this day|the just re-|joice, * * * *|the * * * just|
 (GA) B4 | z2 z2 F2 | (Bcde f2) ||[M:4/4][Q:1/4=72] z2 d4 G2 | (B3 A G^F G2- | G2 ^F=E) F4 | %33
w: re\- * joice.|re-|joice, * * * *|say- ing,|say\- * * * *|* * * ing:|
[M:4/4][Q:1/4=72][Q:1/4=72][Q:1/4=72][Q:1/4=72] G3 A B>c d2- | d2 B2 f4 | z2 B3 cde | f2 F2 c4 | %37
w: Glo- ry be to God|* on high,|glo- ry be to|God on high,|
 z8 | z C2 D EF G2- | G2 C2 c3 G | c2 d2 e3 f | g4 z4 | z4 G3 A | BG d3 (=e ^f2) | g4 z2 (GA) | %45
w: |glo- ry be to God|* on high, to|God on high, on|high,|glo- ry|be to God on *|high, on *|
 =B4 z4 | z2 (cd) =e4 | z4 ||[M:4/4][Q:1/4=108] f4 e2 d2 x2 | d4 d4 | c2 =B2 B4 | x8 | %52
w: high,|on * high.||Al- le- lu-|ia, Al-|le- lu- ia,||
[M:3/4][Q:1/4=108][Q:1/4=108][Q:1/4=108][Q:1/4=108] c2 G2 G2- | G2 G4 | e3 (dc=B) | (c4 =B2) || %56
w: Al- le- lu\-|* ia,|Al- le\- * *|lu\- *|
[M:4/4][Q:1/4=72] c4 z4 | c3 B (A3 G/F/) |[M:4/4][Q:1/4=72][Q:1/4=72][Q:1/4=72][Q:1/4=72] G4 C3 D | %59
w: ia,|Al- le- lu\- * *|ia, Al- le-|
 (=E>F) G2 z C2 C | G2 C2[Q:1/4=69] c3[Q:1/4=66] c | %61
w: lu\- * ia, Al- le-|lu- ia, Al- le-|
[Q:1/4=64] (c[Q:1/4=63]B/[Q:1/4=63]A/[Q:1/4=62] G[Q:1/4=60]B)[Q:1/4=60] !fermata!A4 |] %62
w: lu\- * * * * ia.|
V:2
 z8 | z4 F2 c2 | z f2 (e/d/) c2 z d- |[M:4/4] d (c/B/) A2 z c2 B | A4 G2 B2 | z F B>B G2 z B- | %6
w: |This day|Christ was * born. Christ|* was * born, Christ was|born. This day|our Sa- vi- our did|
 BA G2 A3 G | F4 z4 | z2 c2 A2 Fc- | c/d/=e fd c4 | c2 d2 G4- | G4 z4 | B>c dB/c/ de d2 | %13
w: * ap- pear, did ap-|pear.|This day the an\-|* gels do sing in earth,|sing in earth.||The arch- an- gels are glad, are glad,|
 z2 c>B AF z2 | z4 c>d =ed/e/ | (f/=e/d/e/ f)g f2 z2 | F>G AF/G/ (A/G/A/B/ A2) ||[M:3/4] B4 A2 | %18
w: the arch- an- gels,|the arch- an- gels are|glad, * * * * are glad,|the arch- an- gels are glad. * * * *|This day|
 B2 G2 A2 | (Bcde f2) | d2 B2 A2 | B4 z2 |[M:3/4] z6 | z6 | d4 c2 | d2 B2 (FG | AB) c2 z2 | %27
w: the just re-|joice, * * * *|the just re-|joice,|||this day|the just re\- *|* * joice,|
 z2 z2 B2 | (Bcde f2) | z2 z d3- ||[M:4/4] d2 A2 z2 d2- | d2 G2 z2 (B2- | BA AB/c/) d4 | %33
w: re-|joice, * * * *|say\-|* ing, say\-|* ing. say\-|* * * * * ing:|
[M:4/4] z4 G3 A | B>c d4 B2 | f4 F2 B2- | B2 (AG FG=EF) | G8 | z8 | z4 z2 c2 | e2 f2 g4 | %41
w: Glo- ry|be to God on|high, to God|* on * * * * *|high,||to|God on high,|
 G3 A BG d2- | d (e f2) g4 | G3 A BG d2 | z2 (GA) =B4 | z4 z2 (cd) | =e2 (AB) c4- | c4 || %48
w: glo- ry be to God|* on * high,|glo- ry be to God|on * high,|on *|high, on * high.||
[M:4/4] z8 x2 | z8 | f4 e2 x2 | d2 d4 z2 |[M:3/4] e3 (dc=B) | (c4 =B2) | c4 G2 | G2 G4 || %56
w: ||Al- le-|lu- ia,|Al- le\- * *|lu\- *|ia, Al-|le- lu-|
[M:4/4] G2 c3 B (A2- | AG/F/ G2) F4 |[M:4/4] z C2 D (=E2 F2) | G4 c3 c | (cB/A/ G/A/B/A/) G2 FF | %61
w: ia, Al- le- lu\-|* * * * ia,|Al- le- lu\- *|ia, Al- le-|lu\- * * * * * * ia, Al- le-|
 c4 !fermata!c4 |] %62
w: lu- ia.|
V:3
{[F,c]} C2 F2 z A2 (G/F/) | =E2 F4 F2 | F4 z F2 (D/C/) |[M:4/4] B,2 z2 F3 F | F4 z2 G2 | %5
w: This day Christ was *|born, Christ was|born, Christ was *|born, Christ was|born. This|
 F2 F G2 EF(G- | G/F/ F2 =E) F4 | C2 A,2 F,C>F,(F- | F/=E/F/)D/ EE F>G AA | G2 B2 A4 | %10
w: day our Sa- vi- our did|* * * ap- pear.|This day the an- gels sing|* * * in earth, the an- gels sing in|earth, in earth,|
 GA>GF3/2 (E/D/C/ D2) | =E4 F3 G | FB, z F (B/A/G/A/ B)B, | F2 z2 z4 | z2 z G2 A G2 | %15
w: the an- gels sing in * * *|earth. The arch-|an- gels are glad, * * * * are|glad,|the arch- an-|
 F2 c>B AF z (D/=E/) | FC F4 F2 ||[M:3/4] F6 | z6 | z6 | z6 | F4 F2 |[M:3/4] F2 G2 F2 | F4 F2 | %24
w: gels, the arch- an- gels are *|glad, are glad, are|glad.||||This day|the just re-|joice, re-|
 (B,CDE F2) | D2 D3 C | A,4 B,2 | B,4 B,2 | (B,3 CDE | F6) ||[M:4/4] ^F4 G4 | (G6 G,A, | %32
w: joice, * * * *|this day the|just re-|joice, re-|joice, * * *||say- ing,|say\- * *|
 B,C D3 C/B,/ A,2) |[M:4/4] D4 z4 | B,3 C D>E F2- | F2 B,2 B4 | z4 C3 D | E>F G4 C2 | c2 (c4 =B2) | %39
w: |ing:|Glo- ry be to God|* on high,|glo- ry|be to God on|high, on *|
 c4 z2 G2- | GG B2 (GFED) | C2 B,3 C D>E | F2 D2 E4 | D2 B4 A2 | G6 G,2 | D3 =E F2 (E2- | %46
w: high, glo\-|* ry be to * * *|God, glo- ry be to|God on high,|to God on|high, to|God on high, on|
 E2 F2) G4- | G4 ||[M:4/4] A4 G2 F4 | F2 B4 G2 | G4 G2 x2 | x8 |[M:3/4] G6 | E2 D4 | C2 E3 F | %55
w: * * high.||Al- le- lu-|ia, Al- le-|lu- ia,||Al-|le- lu-|ia, Al- le-|
 (G3 F D2) ||[M:4/4] =E4 z2 F2- | FC (C4 F,2) |[M:4/4] C4 z4 | C3 D (=E>F G2- | GF=ED EC F2- | %61
w: lu\- * *|ia, Al\-|* le- lu\- *|ia,|Al- le- lu\- * *||
 F2 =E2) !fermata!F4 |] %62
w: * * ia.|
V:4
 z4 z2{[F,B]} F,2 | C2 z B,2 (A,/G,/) F,2 | D3 (C/B,/) A,2 z2 |[M:4/4] F3 (E/D/) C2 z2 | %4
w: This|day Christ was * born,|Christ was * born,|Christ was * born.|
 z2 C2 E2 z B,- | B,D>DE B,CA,B, | (G,A,/B,/) C>B, A,4 | z4 C2 F,F, | A,>B, CG, F,F, C>D | %9
w: This day our|* Sa- vi- our did ap- pear, ap-|pear, * * did ap- pear.|This day the|an- gels sing in earth, the an- gels|
 =EGFF, A,>B, CA, | CC F>E D2 G,2 | G,2 C2 C2 z2 | z4 z2 F>G | AG/F/ GG F2 F2- | %14
w: sing in earth, the an- gels sing in|earth, the an- gels sing in|earth, in earth.|The arch-|an- gels are glad, are glad, the|
 FG F=E/ (D/ E)F z C- | C F2 =E F2 z2 | z CA,B, A,>G, F,2 ||[M:3/4] B,4 F2 | B,2 C2 F,2 | %19
w: * arch- an- gels are * glad, are|* glad, are glad,|are glad, are glad, are glad.|This day|the just re-|
 (B,3 CDC | B,4) F,2 | (B,CDE F2) |[M:3/4] z2 z2 F,2 | (B,CDE F2) | z6 | F2 F2 F2 | F4 D2 | G4 G2 | %28
w: joice, * * *|* re-|joice, * * * *|re-|joice, * * * *||this day the|just re-|joice, re-|
 F4 B,2 | (DEFE D2) ||[M:4/4] D4 =B,4 | z2 (E3 D/C/ B,C) | D8 |[M:4/4] (B,3 C) D4 | z4 B,3 C | %35
w: joice, re-|joice, * * * *|say- ing,|say\- * * * *|ing,|say\- * ing:|Glo- ry|
 D>E F4 F,2 | F4 z4 | z C2 D E>F G2- | G2 ^F2 G2 D2 | E3 F G4 | z4 C3 D | EC G4 F2 | B4 z2 G2- | %43
w: be to God on|high,|glo- ry be to God|* on high, to|God on high,|glo- ry|be to God on|high, glo\-|
 GG,B,C D3 (C/D/ | B,G, C2) =B,4 | G,2 B,2 A,3 G, | G,2 F,2 C2 (CD) | =E4 || %48
w: * ry be to God on *|* * * high,|glo- ry be to|God on high, on *|high.|
[M:4/4]"^\" F3 F, C2 x4 | F,6 x2 | F4 C2 x2 | D4 D2 z2 |[M:3/4] C4 G,2 | G,4 G,2 | G6 | E2 D4 || %56
w: Al- le- lu-|ia,|Al- le-|lu- ia,|Al- le-|lu- ia,|Al-|le- lu-|
[M:4/4] C4 z4 | z4 C3 D |[M:4/4] (=E>F G4) F2 | z =E2 D (C>DE>D) | C4 C2 C2 | C4 !fermata!C4 |] %62
w: ia,|Al- le-|lu\- * * ia,|Al- le- lu\- * * *|ia, Al- le-|lu- ia.|
V:5
 z8 | z8 | B,2 B2 cA B2 |[M:4/4][K:treble-8] z2 c2 A2 z d- | d (c/B/) A2 z2 B2 | B2 BG>GG F(D | %6
w: ||This day Christ was born,|this day Christ\-|* was * born. This|day our Sa- vi- our did ap\-|
 =EF G2) F2 c2 | A2 Fc3/2 (d/=e) fd | c2 C2 F4 | z c d>B cA F2 | z A d>A =B (c2 B) | c4 A>B cB/c/ | %12
w: * * * pear. This|day the an- gels * sing in|earth, this day|the an- gels sing in earth,|the an- gels sing in *|earth. The arch- an- gels are|
 de (d>c B)c/c/ B>B | F2 c c2 d cB/c/ | dB B2 z c2 C | FF z G ABAG | (c/B/A/B/ c)d c4 || %17
w: glad, are glad, * * the arch- an- gels|are glad, the arch- an- gels are|glad, are glad, the arch-|an- gels are glad, are glad, are|glad, * * * * are glad.|
[M:3/4][K:treble-8] z6 | z6 | z6 | z6 | d4 c2 |[M:3/4][K:treble-8] d2 e2 c2 | (de f2) F2 | %24
w: ||||This day|the just re-|joice, * * the|
 (GABG) c2 | B2 (f3 e | d2) c2 B2 | e2 (GABc) | d4 d2 | B6 ||[M:4/4] A4 G4 | z2 (GA Bc d2- | %32
w: just * * * re-|joice, the *|* just re-|joice, re\- * * *|joice, re-|joice,|say- ing,|say\- * * * *|
 dc/B/ AG) A4 |[M:4/4][K:treble-8] G8 | G4 z4 | B3 c d>e f2 | F3 G A>B c2- | c2 C2 c3 (B | A4) G4 | %39
w: * * * * * ing,|say-|ing:|Glo- ry be to God,|glo- ry be to God|* on high, on|* high,|
 (c>d ed) c4 | z4 z2 c2- | cc e4 (dc) | B4 B2 c2 | B3 A G2 z2 | z2 e2 (dc d2) | (=Bc d2) c4- | %46
w: on * * * high,|glo\-|* ry be to *|God on high,|glo- ry be|to God * *|on * * high,|
 c4 z2 G2 | c4 ||[M:3/4] c4 c2 x4 | A4 B2 x2 | Bc d2 G2 x2 | GA (=B2 G2) z2 | %52
w: * on|high.|Al- le-|lu- ia,|Al- le- lu- ia,|Al- le- lu\- *|
[M:3/4][K:treble-8] G6 | z6 | C3 (D E2- | E) (F G4) ||[M:4/4] G4 c3 B | A2 G2 A>B c2- | %58
w: ia,||Al- le\- *|* lu\- *|ia, Al- le-|lu- ia, Al- le- lu\-|
[M:4/4][K:treble-8] c2 G2 z2 c2- | c2 B2 A2 G2 | =E3 F (GABA | G4) !fermata!F4 |] %62
w: * ia, Al\-|* le- lu- ia,|Al- le- lu\- * * *|* ia.|
V:6
 z8 | z8 | z2 B,,2 F,2 z B,- |[M:4/4] B, (A,/G,/) F,2 z F,2 B,, | F,4 z2 E,2 | %5
w: ||This day Christ|* was * born, Christ was|born. This|
 B,2 B,,E,>E,C, D,B,, | C,2 C,2 F,4- | F,4 z4 | z4 z2 F,2 | C,2 z B,, F,3/2 (G,/ A,)C- | %10
w: day our Sa- vi- our did ap-|pear, ap- pear.||This|day the an- gels * sing|
 CF, D,2 G,4 | C,4 F,>G, A,G,/A,/ | (B,/A,/G,/A,/ B,2) z4 | z4 F,>G, A,G,/A,/ | %14
w: * in earth, in|earth. The arch- an- gels are|glad, * * * *|the arch- an- gels are|
 (B,/A,/G,/A,/ B,)G, (C/B,/A,/B,/ C2) | z2 z C, (F,/=E,/D,/E,/ F,)G, | F,3 B,, F,4 ||[M:3/4] z6 | %18
w: glad, * * * * are glad, * * * *|are glad, * * * * are|glad, are glad.||
 z6 | z6 | z6 | B,4 A,2 |[M:3/4] B,2 G,2 A,2 | (B,3 CDC | B,4) F,2 | B,,3 C, (D,E, | F,4) G,2 | %27
w: |||This day|the just re-|joice, * * *|* the|just re- joice, *|* the|
 E,3 (F,G,A,) | B,3 B,,3 | B,,6 ||[M:4/4] D,4 G,,4 | G,8 | D,8 |[M:4/4] z8 | z8 | z4 B,,3 C, | %36
w: just re\- * *|joice, re-|joice,|say- ing,|say-|ing:|||Glo- ry|
 D,>E, F,4 C,2 | C2 (C3 DED) | C4 z4 | C,3 D, E,C, C2- | C2 B,2 E4 | z2 E,2 G,>A, B,2 | %42
w: be to God on|high, on * * *|high,|glo- ry be to God|* on high,|to God on high,|
 z2 B,,2 E,3 F, | G,4 z2 D,2 | E,3 F, G,4 | z2 G,,2 A,,3 B,, | C,8 | z4 ||[M:3/4] F,4 C,2 x4 | %49
w: to God on|high, to|God on high,|to God on|high.||Al- e-|
 D,4 B,,2 x2 | B,,4 C,2 x2 | G,4 G,,2 z2 |[M:3/4] C,3 D, (E,2- | E,F,) G,4 | z6 | z6 || %56
w: lu- ia,|Al- le-|lu- ia,|Al- le- lu\-|* * ia,|||
[M:4/4] C,3 D, (=E,2 F,2- | F,2 =E,2) F,4 |[M:4/4] z2 C,3 B,, A,,2 | C,4 C,4 | C,4 C,4- | %61
w: Al- le- lu\- *|* * ia,|Al- le- lu-|ia, Al-|le- lu\-|
 C,4 !fermata!F,4 |] %62
w: * ia.|

